X: 2530
T: Ballyfin, The
R: polka
M: 2/4
K: Dmixolydian
|:A2 A>^G|Ad dB|c>B cG|EF G/F/G|
A2 A>^G|Ad dB|c>B cE|ED D2:|
|:ed c/^c/d|e^c d2|ed c/^c/d|
[1 ea a>g|ed c/^c/d|e^c d2|AB c/^c/d|e^c d2:|
[2 ea a>^g|af g/f/e|fd e/d/^c|AB c/^c/d|e^c d2||

